X:196
T:Marten in the bag
R: polka 32
Z:H DEDIC
L:1/8
Q:1/4=240
M:4/4
I:linebreak $
K:D
"Bm" F2 DF B2 FB |"Bm" d2 Bd df df |"G" b2 b2"A" a3 e |"D" f2 f2 f4 |"Em" e2 gf e2 e2 |
"D" d2 fe d2 d2 |"F#" c2 ed c2 ed |"F#7" c2 ed c2 f2 |"Bm" F2 DF FB FB |"Bm" d2 Bd df df |
"G" b2 b2"A" a3 e |"D" f2 f2 f4 |"Em" e2 gf e2 e2 |"D" d2 fe d2 d2 |"F#7" c2 ed c2 dc |
"Bm" B2 B2 B2 d2 |]"D" d2 Ad f2 df |"G" g2 (3fgf e2 d2 |"A" c2 Ac ce ce |
"F#7" f2 (3efe d2 c2 |"G" B2 FB Bd Bd |"E7" e2 (3ded c2 B2 |"A" A2 EA Ac Ac |
"A7" e2 ce a2 A2 |"D" d2 Ad df df |"G" g2 (3fgf e2 d2 |"A" c2 Ac ce ce |"F#7" f2 (3efe d2 c2 |
"G" B2 FB Bd Bd |"E7" e2 (3ded c2 B2 |"A" A2 EA Ac Ac |"A7" A2 ce"D" d4 |]

